assets/icons/pizza.svg

<svg width="18" height="18" viewBox="0 0 18 18" fill="none" xmlns="http://www.w3.org/2000/svg">
<path d="M15.534 2.38465C13.4816 1.57254 11.1564 1.125 8.98581 1.125C6.75127 1.125 4.42252 1.56551 2.42706 2.36461C1.71338 2.65395 1.59069 3.16406 1.71374 3.54445L1.85682 3.90234C1.88489 3.97243 1.92679 4.03615 1.98001 4.0897C2.03323 4.14325 2.09668 4.18554 2.16659 4.21405C2.2365 4.24256 2.31144 4.2567 2.38693 4.25564C2.46242 4.25457 2.53692 4.23832 2.606 4.20785C2.98569 4.04051 3.44729 3.8373 3.55522 3.79371C5.10245 3.15141 6.98717 2.8125 9.00127 2.8125C11.0217 2.8125 12.8013 3.13734 14.4421 3.80566C14.5974 3.86895 14.9652 4.03137 15.3621 4.20855C15.431 4.23934 15.5055 4.25594 15.5809 4.25736C15.6564 4.25878 15.7314 4.24499 15.8015 4.21681C15.8715 4.18862 15.9352 4.14663 15.9886 4.09333C16.0421 4.04003 16.0843 3.97651 16.1127 3.90656L16.2435 3.58594L16.2554 3.5543C16.3767 3.19535 16.2603 2.67363 15.534 2.38465Z" fill="_COLOR_VAR_"/>
<path d="M14.3865 4.95211C12.7866 4.3077 10.8182 3.9375 8.98585 3.9375C7.13688 3.93872 5.3042 4.2831 3.58092 4.95316C3.56229 4.96055 3.5085 4.9841 3.4301 5.01926C3.36232 5.04964 3.30123 5.09314 3.25035 5.14725C3.19947 5.20136 3.15981 5.26502 3.13366 5.33454C3.10752 5.40406 3.0954 5.47807 3.098 5.55231C3.10061 5.62654 3.11789 5.69951 3.14885 5.76703C3.28948 6.07324 3.48003 6.49055 3.69378 6.95848C4.85077 9.49219 7.00479 14.2031 7.99092 16.2422C8.08227 16.4324 8.22568 16.5928 8.40452 16.7048C8.58336 16.8168 8.7903 16.8759 9.00131 16.875C9.21269 16.8758 9.41995 16.8166 9.59895 16.7042C9.77796 16.5918 9.92135 16.4308 10.0124 16.2401L10.0145 16.2355L14.8415 5.77406C14.8734 5.7056 14.8912 5.63139 14.8937 5.5559C14.8962 5.4804 14.8834 5.40517 14.8562 5.33473C14.8289 5.26429 14.7876 5.2001 14.7349 5.146C14.6822 5.09191 14.619 5.04904 14.5493 5.01996C14.4699 4.98656 14.414 4.96336 14.3911 4.95422L14.3865 4.95211ZM6.82444 7.87254C6.59618 7.88742 6.3688 7.83237 6.17263 7.71472C5.97646 7.59707 5.82081 7.42242 5.72644 7.21405C5.63207 7.00567 5.60346 6.77348 5.64443 6.54844C5.6854 6.32339 5.79399 6.11618 5.95574 5.95443C6.11749 5.79268 6.3247 5.68408 6.54975 5.64311C6.7748 5.60215 7.00699 5.63075 7.21536 5.72512C7.42373 5.81949 7.59839 5.97514 7.71604 6.17132C7.83369 6.36749 7.88874 6.59486 7.87385 6.82313C7.85609 7.09561 7.73982 7.35233 7.54673 7.54542C7.35365 7.7385 7.09692 7.85477 6.82444 7.87254ZM9.07444 12.3725C8.84618 12.3874 8.6188 12.3324 8.42263 12.2147C8.22646 12.0971 8.07081 11.9224 7.97644 11.714C7.88207 11.5057 7.85346 11.2735 7.89443 11.0484C7.9354 10.8234 8.04399 10.6162 8.20574 10.4544C8.36749 10.2927 8.5747 10.1841 8.79975 10.1431C9.0248 10.1021 9.25699 10.1308 9.46536 10.2251C9.67373 10.3195 9.84839 10.4751 9.96604 10.6713C10.0837 10.8675 10.1387 11.0949 10.1239 11.3231C10.1061 11.5956 9.98982 11.8523 9.79673 12.0454C9.60365 12.2385 9.34692 12.3548 9.07444 12.3725ZM11.3244 8.43504C11.0962 8.44992 10.8688 8.39487 10.6726 8.27722C10.4765 8.15957 10.3208 7.98492 10.2264 7.77655C10.1321 7.56817 10.1035 7.33598 10.1444 7.11094C10.1854 6.88589 10.294 6.67868 10.4557 6.51693C10.6175 6.35518 10.8247 6.24658 11.0498 6.20561C11.2748 6.16465 11.507 6.19325 11.7154 6.28762C11.9237 6.38199 12.0984 6.53764 12.216 6.73382C12.3337 6.92999 12.3887 7.15736 12.3739 7.38563C12.3561 7.65811 12.2398 7.91483 12.0467 8.10792C11.8536 8.301 11.5969 8.41727 11.3244 8.43504Z" fill="_COLOR_VAR_"/>
</svg>

<svg xmlns="http://www.w3.org/2000/svg" width="18" height="18"><path d="M15.534 2.385a18.2 18.2 0 0 0-6.548-1.26c-2.235 0-4.563.44-6.559 1.24-.714.289-.836.8-.713 1.18l.143.357a.56.56 0 0 0 .749.306c.38-.167.841-.37.95-.414C5.101 3.15 6.986 2.813 9 2.813c2.02 0 3.8.324 5.441.993.155.063.523.225.92.403a.563.563 0 0 0 .75-.302l.132-.321.011-.032c.122-.359.005-.88-.721-1.17"/><path d="M14.387 4.952c-1.6-.644-3.569-1.014-5.401-1.014A14.9 14.9 0 0 0 3.58 4.953l-.15.066a.563.563 0 0 0-.282.748l.545 1.191c1.157 2.534 3.31 7.245 4.297 9.284a1.12 1.12 0 0 0 1.01.633 1.12 1.12 0 0 0 1.011-.635l.002-.005 4.828-10.46a.56.56 0 0 0-.293-.755l-.158-.066zm-7.563 2.92a1.125 1.125 0 1 1-.146-2.245 1.125 1.125 0 0 1 .146 2.246m2.25 4.5a1.124 1.124 0 1 1-.146-2.244 1.124 1.124 0 0 1 .146 2.245m2.25-3.937a1.125 1.125 0 1 1-.146-2.246 1.125 1.125 0 0 1 .146 2.246"/></svg>
